packages/ui-solid/icons/lightbulb_28.svg

<svg width="28" height="28" viewBox="0 0 28 28" fill="none" xmlns="http://www.w3.org/2000/svg">
<path fill-rule="evenodd" clip-rule="evenodd" d="M21.7922 9.77847C21.7922 11.8874 20.916 13.7911 19.5186 15.1634C19.4142 15.2659 19.3517 15.3573 19.3194 15.4221C19.2982 15.4648 19.2937 15.4879 19.2929 15.4939C19.2922 17.5899 17.5583 19.2019 15.5283 19.2019H12.4594C10.4294 19.2019 8.69548 17.5899 8.69478 15.4939C8.69478 15.4938 8.69479 15.4939 8.69478 15.4939C8.694 15.4878 8.68952 15.4648 8.66823 15.4221C8.63596 15.3573 8.57347 15.2659 8.46903 15.1634C7.07168 13.7911 6.19546 11.8874 6.19546 9.77847C6.19546 5.51664 9.73565 2.14876 13.9938 2.14876C18.252 2.14876 21.7922 5.51664 21.7922 9.77847ZM8.69492 15.4955C8.6949 15.4955 8.69482 15.4948 8.69478 15.4939L8.69492 15.4955ZM19.2928 15.4955C19.2927 15.4955 19.2928 15.4948 19.2929 15.4939L19.2928 15.4955ZM12.6057 23.5742C12.3932 23.4899 12.2054 23.3589 12.0559 23.1943C11.8262 22.9413 11.6868 22.609 11.6868 22.2451C11.6868 22.0469 11.852 21.8863 12.0559 21.8863H15.9318C16.1356 21.8863 16.3009 22.0469 16.3009 22.2451C16.3009 22.609 16.1615 22.9413 15.9318 23.1943C15.7823 23.3589 15.5945 23.4899 15.3819 23.5742C15.2099 23.6425 15.0217 23.6801 14.8244 23.6801H13.1633C12.966 23.6801 12.7778 23.6425 12.6057 23.5742ZM12.0559 20.0863H15.9318C17.081 20.0863 18.1009 21.0048 18.1009 22.2451C18.1009 24.0798 16.5852 25.4801 14.8244 25.4801H13.1633C11.4025 25.4801 9.88677 24.0798 9.88677 22.2451C9.88677 21.0048 10.9067 20.0863 12.0559 20.0863ZM18.2574 13.8791C17.8128 14.3158 17.4929 14.8783 17.4929 15.4926C17.4929 16.5471 16.6133 17.4019 15.5283 17.4019H12.4594C11.3744 17.4019 10.4948 16.5471 10.4948 15.4926C10.4948 14.8783 10.1749 14.3158 9.73023 13.8791C8.65774 12.8259 7.99546 11.3773 7.99546 9.77847C7.99546 6.55881 10.681 3.94876 13.9938 3.94876C17.3067 3.94876 19.9922 6.55881 19.9922 9.77847C19.9922 11.3773 19.3299 12.8259 18.2574 13.8791Z" fill="#007AFF"/>
</svg>

<svg xmlns="http://www.w3.org/2000/svg" width="28" height="28" fill="none"><path fill="currentColor" fill-rule="evenodd" d="M21.792 9.778a7.53 7.53 0 0 1-2.273 5.385 1 1 0 0 0-.2.26.3.3 0 0 0-.026.07c0 2.097-1.735 3.709-3.765 3.709H12.46c-2.03 0-3.764-1.612-3.764-3.708a.3.3 0 0 0-.027-.072 1 1 0 0 0-.199-.259 7.53 7.53 0 0 1-2.274-5.385c0-4.261 3.54-7.63 7.799-7.63 4.258 0 7.798 3.369 7.798 7.63m-9.187 13.797a1.5 1.5 0 0 1-.55-.38 1.4 1.4 0 0 1-.37-.95c0-.198.166-.359.37-.359h3.876c.204 0 .369.16.369.36 0 .363-.14.695-.37.948a1.48 1.48 0 0 1-1.107.486h-1.66q-.299-.002-.558-.106m-.55-3.489h3.876c1.149 0 2.169.919 2.169 2.16 0 1.834-1.516 3.234-3.277 3.234h-1.66c-1.761 0-3.277-1.4-3.277-3.235 0-1.24 1.02-2.159 2.169-2.159m6.201-6.207c-.444.437-.764 1-.764 1.614 0 1.054-.88 1.909-1.965 1.909H12.46c-1.085 0-1.964-.855-1.964-1.91 0-.614-.32-1.176-.765-1.613a5.73 5.73 0 0 1-1.735-4.1c0-3.22 2.686-5.83 5.999-5.83s5.998 2.61 5.998 5.83a5.73 5.73 0 0 1-1.735 4.1" clip-rule="evenodd"/></svg>
